X: 4
T: The Lilting Banshee
R: jig
M: 6/8
L: 1/8
K: Ador
e>AA e>AA | B>GG B>GG | e>AA e>AA |def gdB |e>AA e>AA | B>GG B>GG | def gdB | BAA A3 :|e>aa e>aa | e>gg e>gg | e>aa e>aa | def gdB |e>aa e>aa | e>gg e>gg | def gdB | BAA A3 :||


Tune 60	Setting 27475

